icon/pk/bottle-one.svg

<svg viewBox="0 0 48 48" fill="none" xmlns="http://www.w3.org/2000/svg" height="1em" width="1em">
  <path d="M15 30C15 28.0527 15.6316 26.1579 16.8 24.6L20.4 19.8C20.7895 19.2807 21 18.6491 21 18V4H27V18C27 18.6491 27.2105 19.2807 27.6 19.8L31.2 24.6C32.3684 26.1579 33 28.0527 33 30V42C33 43.1046 32.1046 44 31 44H17C15.8954 44 15 43.1046 15 42V30Z" fill="#2F88FF" stroke="black" stroke-width="4" stroke-linecap="round" stroke-linejoin="round"/>
  <path d="M21 10L27 10" stroke="white" stroke-width="4" stroke-linecap="round" stroke-linejoin="round"/>
  <path d="M21 12V8" stroke="black" stroke-width="4" stroke-linecap="round" stroke-linejoin="round"/>
  <path d="M27 12V8" stroke="black" stroke-width="4" stroke-linecap="round" stroke-linejoin="round"/>
</svg>

<svg width="48" height="48" fill="none" xmlns="http://www.w3.org/2000/svg"><path d="M15 30a9 9 0 0 1 1.8-5.4l3.6-4.8A3 3 0 0 0 21 18V4h6v14a3 3 0 0 0 .6 1.8l3.6 4.8A9 9 0 0 1 33 30v12a2 2 0 0 1-2 2H17a2 2 0 0 1-2-2V30Z" fill="#2F88FF" stroke="#000" stroke-width="4" stroke-linecap="round" stroke-linejoin="round"/><path d="M21 10h6" stroke="#fff" stroke-width="4" stroke-linecap="round" stroke-linejoin="round"/><path d="M21 12V8M27 12V8" stroke="#000" stroke-width="4" stroke-linecap="round" stroke-linejoin="round"/></svg>
